X: 9
T:Bill Sullivan's Polka
T:Mickey Chewing Bubble Gum
M:2/4
L:1/8
R:Polka
K:A
a2 a>f|ec a2|ce a>f|ec BA|!
a2 a>f|ec a2|ce B>c|1BA A2:|2BA A>B|!
|:ce ec|df fd|ce eA|cB BA/2B/2|!
ce ec|df fd|ce B>c|1BA A>B:|2BA A2|]!
